src/icons/trash-b.svg

<?xml version="1.0" encoding="UTF-8"?>
<svg width="512px" height="512px" viewBox="0 0 512 512" version="1.1" xmlns="http://www.w3.org/2000/svg" xmlns:xlink="http://www.w3.org/1999/xlink">
    <!-- Generator: Sketch 62 (91390) - https://sketch.com -->
    <title>trash-b</title>
    <desc>Created with Sketch.</desc>
    <g id="trash-b" stroke="none" stroke-width="1" fill="none" fill-rule="evenodd">
        <path d="M403.8,134.45 C401.6,126.05 400.1,121.35 400.1,121.35 C397.7,112.65 391.5,112.65 382.3,111.15 L332.5,104.85 C326.3,103.85 326.3,103.85 323.9,98.45 C315.7,80.15 313.2,69.45 304.3,69.45 L207.8,69.45 C198.9,69.45 196.5,80.15 188.3,98.55 C185.9,103.75 185.9,103.75 179.7,104.95 L129.8,111.25 C120.7,112.75 114.1,113.55 111.7,122.35 C111.7,122.35 110.6,126.15 108.2,134.55 C105.2,145.75 104,144.45 114.3,144.45 L397.7,144.45 C408,144.55 406.9,145.65 403.8,134.45 Z M371.7,174.45 L140.3,174.45 C124.7,174.45 124,176.55 124.9,188.25 L142.4,415.65 C143.9,427.15 145,429.55 158.8,429.55 L353,429.55 C366.8,429.55 367.9,427.25 369.4,415.65 L387,188.25 C388,176.35 387.2,174.45 371.7,174.45 Z" id="Shape" fill="#000000" fill-rule="nonzero"></path>
    </g>
</svg>

<svg xmlns="http://www.w3.org/2000/svg" width="512" height="512" viewBox="0 0 512 512">
    <path d="M403.8 134.45c-2.2-8.4-3.7-13.1-3.7-13.1-2.4-8.7-8.6-8.7-17.8-10.2l-49.8-6.3c-6.2-1-6.2-1-8.6-6.4-8.2-18.3-10.7-29-19.6-29h-96.5c-8.9 0-11.3 10.7-19.5 29.1-2.4 5.2-2.4 5.2-8.6 6.4l-49.9 6.3c-9.1 1.5-15.7 2.3-18.1 11.1 0 0-1.1 3.8-3.5 12.2-3 11.2-4.2 9.9 6.1 9.9h283.4c10.3.1 9.2 1.2 6.1-10zm-32.1 40H140.3c-15.6 0-16.3 2.1-15.4 13.8l17.5 227.4c1.5 11.5 2.6 13.9 16.4 13.9H353c13.8 0 14.9-2.3 16.4-13.9l17.6-227.4c1-11.9.2-13.8-15.3-13.8z"/>
</svg>
